!!!!SEGMENT: Snf0255-Virgo_prudentissima_quo_progrederis--Munich_10
!!!id: Snf0255
!!!AGN: Motet
!!!SCT: Edwards, Gasch, Tröster (2022)
!!!voices: 4
!!!COM: Ludwig Senfl
!!!OTL: Virgo prudentissima, quo progrederis (Munich 10)
**kern	**text	**kern	**text	**kern	**text	**kern	**text
*part4	*part4	*part3	*part3	*part2	*part2	*part1	*part1
*staff4	*staff4	*staff3	*staff3	*staff2	*staff2	*staff1	*staff1
*I"Bassus	*	*I"Tenor	*	*I"Altus	*	*I"Superius	*
*I'B	*	*I'T	*	*I'A	*	*I'S	*
*clefF4	*	*clefGv2	*	*clefGv2	*	*clefG2	*
*	*	*	*	*	*	*	*
*k[]	*	*k[]	*	*k[]	*	*k[]	*
*	*	*	*	*	*	*	*
*M2/1	*	*M2/1	*	*M2/1	*	*M2/1	*
*met(C|)	*	*met(C|)	*	*met(C|)	*	*met(C|)	*
!!section: Prima pars: Virgo prudentissima, quo progrederis
!!!OMD: Prima pars: Virgo prudentissima, quo progrederis
0r	.	0r	.	1r	.	1d	Vir-
.	.	.	.	1d	Vir-	1f	-go
=1	=1	=1	=1	=1	=1	=1	=1
1D	Vir-	0r	.	0f	-go	1d	pru-
1F	-go	.	.	.	.	1c	-den-
=2	=2	=2	=2	=2	=2	=2	=2
1D	pru-	1A	Vir-	2r	.	1f	-tis-
.	.	.	.	1f	pru-	.	.
1C	-den-	1c	-go	.	.	1g	-si-
.	.	.	.	2e	-den-	.	.
=3	=3	=3	=3	=3	=3	=3	=3
1F	-tis-	1A	pru-	2c	-tis-	1a	-ma,
.	.	.	.	1d	-si-	.	.
1G	-si-	1G	-den-	.	.	1r	.
.	.	.	.	[2e	.	.	.
=4	=4	=4	=4	=4	=4	=4	=4
1A	-ma,	1c	-tis-	4e]	.	0r	.
.	.	.	.	4d	.	.	.
.	.	.	.	1c	.	.	.
2F	.	1d	-si-	.	.	.	.
2G	.	.	.	2B	.	.	.
=5	=5	=5	=5	=5	=5	=5	=5
1C	.	1e	-ma,	1c	-ma,	1r	.
2r	.	2r	.	2r	.	1a	quo
2D	quo,	2d	quo,	2f	quo	.	.
=6	=6	=6	=6	=6	=6	=6	=6
2E	.	2B	.	1e	pro-	1g	pro-
2C	.	2c	.	.	.	.	.
1D	.	1A	.	[1d	-gre-	1f	.
=7	=7	=7	=7	=7	=7	=7	=7
2r	.	2r	.	2d]	.	1f	-gre-
2D	quo	2d	quo	2f	.	.	.
2E	.	2B	.	1e	.	1g	.
2C	.	2c	.	.	.	.	.
=8	=8	=8	=8	=8	=8	=8	=8
2F	.	1A	.	2c	.	2.a	.
2D	.	.	.	1d	.	.	.
.	.	.	.	.	.	4g	.
2r	.	2r	.	.	.	2f	.
2AA	pro-	2A	pro-	2c	.	[2e	.
=9	=9	=9	=9	=9	=9	=9	=9
2BB-X	-gre-	2F	-gre-	2B-X	.	4e]	.
.	.	.	.	.	.	4d	.
2GG	-de-	2G	.	2B-i	-de-	1d	.
1AA	-ris,	1E	-de-	1A	-ris,	.	.
.	.	.	.	.	.	2c#i	-de-
=10	=10	=10	=10	=10	=10	=10	=10
1r	.	1D	-ris,	2r	.	0d	-ris,
.	.	.	.	2F	qua-	.	.
2r	.	1r	.	2G	-si	.	.
2D	qua-	.	.	2A	au-	.	.
=11	=11	=11	=11	=11	=11	=11	=11
2E	.	1G	qua-	2G	-ro-	1r	.
2C	.	.	.	1c	.	.	.
1F	.	[1A	-si	.	.	1c	qua-
.	.	.	.	2F	.	.	.
=12	=12	=12	=12	=12	=12	=12	=12
1D	-si	1A]	.	2.f	.	[0d	-si
.	.	.	.	4e	.	.	.
2r	.	2r	.	4d	.	.	.
.	.	.	.	4c	.	.	.
2GG	au-	2G	au-	4B	.	.	.
.	.	.	.	4A	.	.	.
=13	=13	=13	=13	=13	=13	=13	=13
4GG	-ro-	1G	-ro-	1B	.	1d]	.
4AA	.	.	.	.	.	.	.
4BB	.	.	.	.	.	.	.
4C	.	.	.	.	.	.	.
2D	.	2F	-ra,	2A	.	2r	.
[2BB-X	.	2B-X	au-	2D	-ra,	2d	au-
=14	=14	=14	=14	=14	=14	=14	=14
4BB-]	.	1B-i	-ro-	2r	.	4d	-ro-
4C	.	.	.	.	.	4e	.
4D	.	.	.	2d	au-	4f	.
4E	.	.	.	.	.	4g	.
2F	.	2A	-ra,	2c	-ro-	[1a	.
[2D	.	2d	au-	[2f	.	.	.
=15	=15	=15	=15	=15	=15	=15	=15
4D]	.	1d	-ro-	1f]	.	1a]	.
4E	.	.	.	.	.	.	.
4F	.	.	.	.	.	.	.
4G	.	.	.	.	.	.	.
2A	.	2c	-ra,	2e	.	[1cc	.
[2F	.	2f	au-	2A	.	.	.
=16	=16	=16	=16	=16	=16	=16	=16
4F]	.	1f	-ro-	1A	-ra,	1cc]	.
4G	.	.	.	.	.	.	.
4A	.	.	.	.	.	.	.
4B	.	.	.	.	.	.	.
2c	.	1e	-ra,	2r	.	1g	.
2C	.	.	.	2c	au-	.	.
=17	=17	=17	=17	=17	=17	=17	=17
1D	.	2r	.	2A	.	1f	.
.	.	2d	au-	2F	.	.	.
2.C	.	2.e	-ro-	2c	-ro-	2.g	.
.	.	.	.	[2e	.	.	.
4D	.	4d	.	.	.	4f	.
=18	=18	=18	=18	=18	=18	=18	=18
2E	.	2c	.	2e]	.	2g	.
2F	.	2A	.	2d	.	1a	.
1E	.	1B	-ra	1e	-ra	.	.
.	.	.	.	.	.	2g#i	.
=19	=19	=19	=19	=19	=19	=19	=19
1AA	-ra	2r	.	2r	.	[0a	-ra
.	.	1c	val-	1e	val-	.	.
2r	.	.	.	.	.	.	.
[2F	val-	2A	-de,	2c	-de,	.	.
=20	=20	=20	=20	=20	=20	=20	=20
2F]	.	1d	val-	1f	val-	1a]	.
2D	-de,	.	.	.	.	.	.
1G	val-	2B	-de,	2d	-de,	1r	.
.	.	[2e	val-	[2g	val-	.	.
=21	=21	=21	=21	=21	=21	=21	=21
2E	-de,	2e]	.	2g]	.	0r	.
1A	val-	2c	-de	2e	-de	.	.
.	.	1f	ru-	1a	ru-	.	.
2F	-de	.	.	.	.	.	.
=22	=22	=22	=22	=22	=22	=22	=22
1G	ru-	2d	.	1g	.	0r	.
.	.	2e	.	.	.	.	.
2F	.	2d	.	2a	.	.	.
2E	.	[2c	.	2e	.	.	.
=23	=23	=23	=23	=23	=23	=23	=23
1D	-ti-	2c]	.	1f	-ti-	0r	.
.	.	2B	-ti-	.	.	.	.
[1C	-lans,	1c	-lans,	1e	-lans,	.	.
=24	=24	=24	=24	=24	=24	=24	=24
1C]	.	2r	.	2r	.	1r	.
.	.	1c	val-	1e	val-	.	.
2r	.	.	.	.	.	2r	.
[2F	val-	2A	-de,	2c	-de	[2a	val-
=25	=25	=25	=25	=25	=25	=25	=25
2F]	.	1d	val-	2f	ru-	2a]	.
2D	-de	.	.	2f	-ti-	2f	-de
2E	ru-	2B	-de	1e	-lans?	1g	ru-
2C	.	2e	ru-	.	.	.	.
=26	=26	=26	=26	=26	=26	=26	=26
2D	.	2d	.	0r	.	2f	.
2E	.	1c	.	.	.	2e	.
2F	.	.	.	.	.	1d	-ti-
2G	.	2B	-ti-	.	.	.	.
=27	=27	=27	=27	=27	=27	=27	=27
2.A	.	2c	-lans?	1r	.	[0c	-lans?
.	.	2A	Fi-	.	.	.	.
4AA	-ti-	.	.	.	.	.	.
1AA	-lans?	2c	-li-	2r	.	.	.
.	.	2A	-a,	2E	Fi-	.	.
=28	=28	=28	=28	=28	=28	=28	=28
2r	.	2r	.	2A	-li-	0c]	.
2AA	Fi-	2A	fi-	2F	-a	.	.
2C	-li-	2G	-li-	1E	Si-	.	.
2AA	-a,	2A	-a,	.	.	.	.
=29	=29	=29	=29	=29	=29	=29	=29
2r	.	2r	.	1A	-on,	2r	.
2A	fi-	2c	fi-	.	.	2e	Fi-
2G	-li-	2B	-li-	1r	.	2g	-li-
2A	-a	2c	-a	.	.	2e	-a
=30	=30	=30	=30	=30	=30	=30	=30
2F	Si-	2A	Si-	2r	.	1f	Si-
2D	.	1d	.	2.A	Si-	.	.
1A	-on,	.	.	.	.	1e	.
.	.	.	.	4B	.	.	.
.	.	2c	.	2c	.	.	.
=31	=31	=31	=31	=31	=31	=31	=31
2r	.	2d	-on,	1G	-on,	1d	-on,
1B-X	Si-	1G	to-	.	.	.	.
.	.	.	.	1r	.	1r	.
2A	.	2F	.	.	.	.	.
=32	=32	=32	=32	=32	=32	=32	=32
2.G	-on,	1B-X	-ta	1r	.	1d	to-
4F	.	.	.	.	.	.	.
1E	.	2r	.	1G	to-	1c	.
.	.	2c	for-	.	.	.	.
=33	=33	=33	=33	=33	=33	=33	=33
1D	to-	2d	-mo-	1F	.	1f	-ta
.	.	1f	.	.	.	.	.
1C	.	.	.	2.c	-ta	2r	.
.	.	2e	.	.	.	2g	for-
.	.	.	.	4B	.	.	.
=34	=34	=34	=34	=34	=34	=34	=34
1F	-ta	1f	.	2A	.	2a	-mo-
.	.	.	.	2F	.	1cc	.
2r	.	1d	.	2G	.	.	.
2G	for-	.	.	2g	for-	2b	.
=35	=35	=35	=35	=35	=35	=35	=35
2A	-mo-	2c	.	2e	-mo-	2cc	.
2F	.	2d	.	2f	.	1a	.
2.G	.	1B	.	2.d	-sa	.	.
.	.	.	.	.	.	2g	.
4E	.	.	.	4e	.	.	.
=36	=36	=36	=36	=36	=36	=36	=36
2F	.	2A	-sa	2c	.	[0a	-sa
2D	-sa	1d	et	1f	et	.	.
2r	.	.	.	.	.	.	.
[2D	et	2d	su-	2f	su-	.	.
=37	=37	=37	=37	=37	=37	=37	=37
2D]	.	4d	-a-	4f	-a-	0a]	.
.	.	4c	.	4e	.	.	.
2D	su-	4d	.	4d	.	.	.
.	.	4e	.	4c	.	.	.
4D	-a-	2f	.	2d	.	.	.
4C	.	.	.	.	.	.	.
4D	.	2d	-vis,	2A	-vis	.	.
4E	.	.	.	.	.	.	.
=38	=38	=38	=38	=38	=38	=38	=38
1F	.	2r	.	1A	es,	2r	.
.	.	2c	su-	.	.	1a	et
1D	-vis,	4d	-a-	2r	.	.	.
.	.	4c	.	.	.	.	.
.	.	4d	.	2A	su-	2a	su-
.	.	4e	.	.	.	.	.
=39	=39	=39	=39	=39	=39	=39	=39
2r	.	2f	.	2d	-a-	4a	-a-
.	.	.	.	.	.	4g	.
2D	su-	2d	.	2f	.	4a	.
.	.	.	.	.	.	4b	.
4A	-a-	1c	-vis,	2e	.	1cc	.
4G	.	.	.	.	.	.	.
4F	.	.	.	[2A	.	.	.
4E	.	.	.	.	.	.	.
=40	=40	=40	=40	=40	=40	=40	=40
2F	.	2r	.	4A]	.	1a	.
.	.	.	.	4G	.	.	.
2F	-vis	2d	su-	4A	.	.	.
.	.	.	.	4B	.	.	.
1E	es:	4e	-a-	4c	.	1g	.
.	.	4d	.	4B	.	.	.
.	.	4c	.	2e	-vis	.	.
.	.	4B	.	.	.	.	.
=41	=41	=41	=41	=41	=41	=41	=41
2r	.	1c	.	1e	es:	2g	.
2C	pul-	.	.	.	.	1a	.
2D	-chra	1B	-vis	1r	.	.	.
2E	ut	.	.	.	.	2g#i	-vis
=42	=42	=42	=42	=42	=42	=42	=42
1F	lu-	2A	es:	2r	.	[0a	es:
.	.	2c	pul-	2.A	pul-	.	.
2D	.	2d	-chra	.	.	.	.
.	.	.	.	4B	.	.	.
2C	.	2e	ut	2c	.	.	.
=43	=43	=43	=43	=43	=43	=43	=43
2D	-na,	1f	lu-	2.F	-chra	0a]	.
2.F	pul-	.	.	.	.	.	.
.	.	.	.	4G	.	.	.
.	.	2d	.	1A	.	.	.
4G	.	.	.	.	.	.	.
2A	-chra	2c	.	.	.	.	.
=44	=44	=44	=44	=44	=44	=44	=44
1B-X	ut	2.d	.	0r	.	2r	.
.	.	.	.	.	.	2f	pul-
.	.	4c	.	.	.	.	.
2G	lu-	2B	.	.	.	2g	-chra
2F	.	2A	.	.	.	2a	ut
=45	=45	=45	=45	=45	=45	=45	=45
2.G	.	2G	-na,	1d	ut	2b-i	lu-
.	.	2B	pul-	.	.	1g	.
4F	.	.	.	.	.	.	.
2E	.	2c	-chra	2G	lu-	.	.
2D	.	2d	ut	2A	.	2f	.
=46	=46	=46	=46	=46	=46	=46	=46
4C	-na,	2e	lu-	2c	.	2g	.
4D	.	.	.	.	.	.	.
4E	.	2c	.	2G	-na,	1g	.
4F	.	.	.	.	.	.	.
4G	.	2B	.	2r	.	.	.
4E	.	.	.	.	.	.	.
2A	.	2c	.	[2c	ut	2e	.
=47	=47	=47	=47	=47	=47	=47	=47
2F	.	2A	.	2c]	.	2f	.
2B-i	.	1d	.	2d	lu-	2d	.
2G	.	.	.	2B	.	1e	.
2A	.	2c	.	2c	.	.	.
=48	=48	=48	=48	=48	=48	=48	=48
1D	.	1d	-na,	2A	.	0d	-na,
.	.	.	.	2F	.	.	.
1r	.	1B	e-	1G	-na,	.	.
=49	=49	=49	=49	=49	=49	=49	=49
1E	e-	1c	.	2r	.	0r	.
.	.	.	.	2G	e-	.	.
1F	.	1d	.	2A	-le-	.	.
.	.	.	.	2A	-cta,	.	.
=50	=50	=50	=50	=50	=50	=50	=50
1G	.	1d	-le-	1B	.	0r	.
1G	-le-	1e	.	2r	.	.	.
.	.	.	.	2B	e-	.	.
=51	=51	=51	=51	=51	=51	=51	=51
1A	.	1c	.	2c	-le-	1e	e-
.	.	.	.	2A	-cta,	.	.
2F	.	1d	.	2r	.	1f	.
2D	.	.	.	2A	e-	.	.
=52	=52	=52	=52	=52	=52	=52	=52
2G	.	2G	-cta,	2B	-le-	1g	.
2C	-cta,	2c	e-	2c	.	.	.
2r	.	2B	-le-	2d	.	1g	-le-
2C	e-	2e	.	2c	.	.	.
=53	=53	=53	=53	=53	=53	=53	=53
1F	-le-	2c	.	2F	.	1a	.
.	.	1d	.	1f	.	.	.
2D	.	.	.	.	.	2f	.
[2E	.	[2G	.	[2e	.	[2g	.
=54	=54	=54	=54	=54	=54	=54	=54
2E]	.	2G]	.	2e]	.	2g]	.
2A	.	1c	.	1A	.	2c	-cta
2F	.	.	.	.	.	1d	ut
2G	.	2B	.	2B	.	.	.
=55	=55	=55	=55	=55	=55	=55	=55
2C	.	1c	-cta	2A	.	1e	.
2E	.	.	.	2G	.	.	.
1D	.	2r	.	[1A	.	1f	.
.	.	2F	ut	.	.	.	.
=56	=56	=56	=56	=56	=56	=56	=56
1C	-cta	1c	sol,	2A]	.	0e	sol.
.	.	.	.	2G	.	.	.
2r	.	2r	.	1G	-cta	.	.
2C	ut	2c	ut	.	.	.	.
=57	=57	=57	=57	=57	=57	=57	=57
1G	sol,	1B	sol,	2r	.	[0dl	.
.	.	.	.	2G	ut	.	.
2r	.	2r	.	2D	.	.	.
2AA	ut	2B	ut	[2G	.	.	.
=58	=58	=58	=58	=58	=58	=58	=58
[0Dl	sol.	[0Al	sol.	2G]	.	0d_	.
.	.	.	.	4F	.	.	.
.	.	.	.	4E	.	.	.
.	.	.	.	1F	.	.	.
=59	=59	=59	=59	=59	=59	=59	=59
00D]	.	00A]	.	00Fl	sol.	00d]	.
==	==	==	==	==	==	==	==
*-	*-	*-	*-	*-	*-	*-	*-
!!!system-decoration: [*]
!!!RDF**kern: i = editorial accidental
!!!RDF**kern: l = terminal long
!!!PTL: <i> New Senfl Edition: Motets for Four Voices (N-V) </i>
!!!PPR: Hollitzer Verlag
!!!PC#: Denkmäler der Tonkunst in Österreich 163.2
!!!PDT: 2022
!!!PED: Scott Lee Edwards, Stefan Gasch, and Sonja Tröster
!!!YEC: Copyright 2022 Denkmäler der Tonkunst in Österreich
!!!YEM: CC-BY-NC 4.0 (https://creativecommons.org/licenses/by-nc/4.0/legalcode)
!!!EED: Benjamin Ory
!!!EEV: 2024/2/25
!!!verovio: header true
!!!header-left: @{PTL}\n@{PED}, eds.\n@{PC#} (@{PDT})&nbsp;\n
!!!header-right:
!!!header-center: